X: 1
T: The Skye Boat Song
R: waltz
M: 3/4
L: 1/8
K: Gmaj
"G"D>E D "G"G2 G|"D"A>B A "D"d3 |"G"B>A B "C"E2 E |"D"D3 "D"D3|
"G"D>E D "G"G2 G|"D"A>B A "D"d3 |"G"B>A B "C"E2 E |E>D E "G"G3|
"G" G3 "Em"B>G B|B3 "Am"A>E A| A3 "Em"G>E F|"C"G2 F "Am"E3 |
"Em"E3 "Em"B>G B|B3 "Am"A>E A| A3 "Em"G>E F|"C"G2 F "Em"E3 |
"D"D3 "G"D>E D|"G"G2 G "D"A>B A |"D"d3 "G"B>A B|"C"E2 E "D"D3 |
"D"D3 "G"D>E D|"G"G2 G "D"A>B A |"D"d3 "G"B>A B|"C"E2 E E>D E |"G" G3 "G" G3|


Tune 3690	Setting 16683

